!!!COM:	Bach, Johann Sebastian
!!!CDT:	1685/02/21/-1750/07/28/
!!!OTL@@DE:	Erbarm dich mein, o Herre Gott
!!!SCT:	BWV 305
!!!PC#:	34
!!!AGN:	chorale
**kern	**kern	**kern	**kern
*ICvox	*ICvox	*ICvox	*ICvox
*Ibass	*Itenor	*Ialto	*Isoprn
*I"Bass	*I"Tenor	*I"Alto	*I"Soprano
*>[A,A,B]	*>[A,A,B]	*>[A,A,B]	*>[A,A,B]
*>norep[A,B]	*>norep[A,B]	*>norep[A,B]	*>norep[A,B]
*>A	*>A	*>A	*>A
*clefF4	*clefGv2	*clefG2	*clefG2
*k[]	*k[]	*k[]	*k[]
*e:phr	*e:phr	*e:phr	*e:phr
*M4/4	*M4/4	*M4/4	*M4/4
*met(c)	*met(c)	*met(c)	*met(c)
*MM100	*MM100	*MM100	*MM100
[4E	4G	4B	4e
=1	=1	=1	=1
8EL]	4B	4e	4g
8F	.	.	.
8E	4B	4e	4g
8DJ	.	.	.
8C	4c	4e	4a
4A	.	.	.
.	4d	8fL	4b
8G#	.	8eJ	.
=2	=2	=2	=2
8AL	8cL	8e	4cc
8C	8eJ	4a	.
8D	8fL	.	4b
8EJ	16eL	8g#	.
.	16dJJ	.	.
4AA;	4c;	4e;	4a;
8EL	4B	8eL	4g
8DJ	.	8fJ	.
=3	=3	=3	=3
4C	4e	8gL	4cc
.	.	[8aJ	.
8DL	8fL	8aL]	4b
8GJ	16eL	16gL	.
.	16dJJ	16fJJ	.
8EL	4c	4.g	4cc
8CJ	.	.	.
4F	[4c	.	4a
.	.	[8f	.
=4	=4	=4	=4
4C	8.cL]	8fL]	4g
.	.	[8eJ	.
.	16B-Jk	.	.
4D	8AL	8eL]	4f
.	16BL	16dL	.
.	16AJJ	16cJJ	.
4E;	4G#;	4B;	4e;
=:|!	=:|!	=:|!	=:|!
*>B	*>B	*>B	*>B
8AL	4A	4c	4e
8GJ	.	.	.
=5	=5	=5	=5
8FL	4c	4f	4a
8E	.	.	.
8D	[4d	4f	4a
8CJ	.	.	.
8BBL	8dL]	8fL	4g
8CJ	8cJ	16eL	.
.	.	16dJJ	.
8BBL	8GL	8eL	4cc
8AAJ	8AJ	8f#J	.
=6	=6	=6	=6
8GGL	8DL	16gLL	4b
.	.	16dJJ	.
8BBJ	8dJ	4g	.
8CL	8eL	.	4a
8DJ	16dL	8f#	.
.	16cJJ	.	.
4GG;	4B;	4d;	4g;
8CL	4c	4e	4g
8BBJ	.	.	.
=7	=7	=7	=7
8AAL	[4c	[4e	4cc
8BB	.	.	.
8C	8cL]	8eL]	4g
8EEJ	8B-J	8dJ	.
8FFL	4A	8cL	4a
8GG	.	8BnXJ	.
8AA	4A	8c#L	4e
8BBJ	.	8dJ	.
=8	=8	=8	=8
8C#L	4A	4.e	8aL
8AAJ	.	.	8gJ
8DL	4A	.	4f
8DDJ	.	[8d	.
4AA;	4A;	8dL]	4e;
.	.	8c#;J	.
8AL	4A	4c	4e
8GJ	.	.	.
=9	=9	=9	=9
4F	8A	8c	4a
.	4c	4e-	.
4F#	.	.	4a
.	16BLL	8d	.
.	16AJJ	.	.
4G	4B	4d	8gL
.	.	.	8fJ
8AL	8cL	4c	4e
8GJ	8BJ	.	.
=10	=10	=10	=10
8FL	4A	[4c	4f
8DJ	.	.	.
8GL	8.GL	8cL]	4d
8GGJ	.	8BJ	.
.	16FJk	.	.
4C;	4E;	4G;	4c;
4C	4E	4G	4c
=11	=11	=11	=11
4BB	4G	4d	2g
8CL	8cL	8eL	.
8BBJ	8dJ	8dJ	.
4AA	8eL	4c	4a
.	8fJ	.	.
8GGL	4g	4d	4b
8FFJ	.	.	.
=12	=12	=12	=12
8EEL	4G	8eL	4cc
8DD	.	8fJ	.
8EE	4c	8gL	4g
8CCJ	.	8eJ	.
8FFL	[4c	[4f	4a
8AAJ	.	.	.
4C	8.cL]	8fL]	4g
.	.	[8eJ	.
.	16B-Jk	.	.
=13	=13	=13	=13
2D	8AL	8eL]	4.f
.	16BnXL	[8dJ	.
.	16cJJ	.	.
.	8BL	8dL]	.
.	8AJ	8cJ	8f
4E;	4G#;	4B;	4e;
==	==	==	==
*-	*-	*-	*-
!!!hum2abc: -Q ''
!!!title: @{PC#}. @{OTL@@DE}
!!!YOR1: 371 vierstimmige Choralges&auml;nge von Johann Sebastian Bach, 
!!!YOR2: 4th ed. by Alfred D&ouml;rffel (Leipzig: Breitkopf und H&auml;rtel, 
!!!YOR2: c.1875). 178 pp. Plate "V.A.10".  reprint: J.S. Bach, 371 Four-Part 
!!!YOR4: Chorales (New York: Associated Music Publishers, Inc., c.1940).
!!!SMS: B&H, 4th ed, Alfred D&ouml;rffel, c.1875, plate V.A.10
!!!EED:  Craig Stuart Sapp
!!!EEV:  2009/05/22
